!! 00000] TT[WS
!!!OTL: Dong sinu
!!!ARE: Asia, China,ÿShanxi Lishan
!! Ethnic Group: Han
!! WI, 181 (1)
!!!SCT: J0213
!!!YEM: Copyright 1995, estate of Helmut Schaffrath.
**kern
*ICvox
*Ivox
*M3/8
*k[f#c#g#]
*A:
{8b
8ee
8cc#
=1
16b
16cc#
8b
8b
=2
8ff#
8ee
8b
=3
16a
16b
8f#
8e}
=4
{8b
8ee
8ee
=5
16b
16cc#
8b
8a
=6
16b
16a
8f#
8e
=7
4c#
8r}
=8
{8b
8e
8f#
=9
8b
8ee
8cc#
=10
16b
16cc#
8b
8e
=11
4f#
8r}
=12
{8b
8b
8a
=13
16b
16cc#
8b
8a
=14
16e
16c#
8e
8f#
=15
8cc#
8b
16a
16f#
=16
16e
16f#
8e
8c#
=17
4B
8r}
==
!!!AGN: Xiaodiao. Fengsuge, Qingge
!!!ONB: ESAC (Essen Associative Code) Database: CHINA
!!!AMT: simple triple
!!!AIN: vox
!!!EED: Helmut Schaffrath
!!!EEV: 1.0
*-
